X:922
T:Tiugainn Gu Sgalpaigh (welcome To Scalpay)
C:Joe Buchanan's Scottish Tome - Page 542.3
I:542 3
Z:Carl Allison
R:Waltz
L:1/4
M:3/4
K:A
E | "A"A>A A | "A7"A B c | "D"B A F | "A"E C E | "A"A>A A | "A7"A c e | "D"f3 | "A"e2 e |
"D"e c B | "E7"B A B | "F#m"c A F | "C#m"E C E | "A"E>F E | "A"e d c | "A"B3 | "A"A2 :|

